X: 34916
T: Rock Valley
R: jig
M: 6/8
K: Cmajor
C2E GFE|D2E F2A|GAG GBd|cBc AGE|
C2E GFE|D2E F2A|GAG GBd|cdc c3:|
|:gag gag|e2c cBA|G2c B2c|e2d d^cd|
gag gag|e2c cBA|G2c B/c/dB|cdc c3:|

